;FLAVOR:Marlin
;TIME:10217
;Filament used: 10.9017m
;Layer height: 0.16
;MINX:35.2
;MINY:43.767
;MINZ:0.24
;MAXX:164.8
;MAXY:124.42
;MAXZ:25.04
;TARGET_MACHINE.NAME:Ulti-steel
;Generated with Cura_SteamEngine 5.7.1
M140 S75
M105
M190 S75
M104 S235
M105
M109 S235
M82 ;absolute extrusion mode
G21 ;metric values
G90 ;absolute positioning
M82 ;set extruder to absolute mode
M107 ;start with the fan off
G28 X0 Y0 ;move X/Y to min endstops
G28 Z0 ;move Z to min endstops
G1 Z15.0 F9000 ;move the platform down 15mm
G92 E0 ;zero the extruded length
G1 F200 E6 ;extrude 6 mm of feed stock
G92 E0 ;zero the extruded length again
G1 F9000
;Put printing message on LCD screen
M117 Printing...
G92 E0
G92 E0
G1 F2700 E-6.5
;LAYER_COUNT:156
;LAYER:0
M107
G1 F600 Z1.24
G0 F3600 X37.398 Y54.543 Z1.24
;TYPE:SKIRT
G1 F600 Z0.24
G1 F2700 E0
G1 F1800 X38.05 Y54.187 E0.02965
G1 X38.631 Y53.967 E0.05444
G1 X39.453 Y53.726 E0.08863
G1 X40.747 Y53.369 E0.14221
G1 X43.295 Y52.585 E0.24861
G1 X45.878 Y51.71 E0.35746
G1 X48.378 Y50.783 E0.46388
G1 X50.849 Y49.785 E0.57024
G1 X53.365 Y48.688 E0.67979
G1 X55.763 Y47.561 E0.78554
G1 X58.191 Y46.333 E0.89414
G1 X60.611 Y45.023 E1.00397
G1 X61.88 Y44.317 E1.06193
G1 X62.34 Y44.106 E1.08213
G1 X63.16 Y43.864 E1.11625
G1 X64.118 Y43.767 E1.15468
G1 X65.164 Y43.783 E1.19644
G1 X66.616 Y43.989 E1.25497
G1 X66.795 Y44.003 E1.26213
G1 X67.989 Y44.175 E1.31028
G1 X70.632 Y44.477 E1.41646
G1 X73.314 Y44.711 E1.52391
G1 X75.993 Y44.863 E1.631
G1 X78.753 Y44.943 E1.74121
G1 X80.192 Y44.955 E1.79864
G1 X119.837 Y44.954 E3.38096
G1 X122.589 Y44.914 E3.49081
G1 X125.306 Y44.799 E3.59935
G1 X127.981 Y44.609 E3.70638
G1 X130.625 Y44.347 E3.81243
G1 X133.356 Y43.998 E3.92231
G1 X134.915 Y43.776 E3.98516
G1 X135.987 Y43.771 E4.02795
G1 X136.78 Y43.854 E4.05977
G1 X137.456 Y44.035 E4.0877
G1 X138.216 Y44.367 E4.12081
G1 X141.192 Y46.013 E4.25654
G1 X143.621 Y47.263 E4.36557
G1 X146.066 Y48.433 E4.47376
G1 X148.497 Y49.516 E4.57997
G1 X150.987 Y50.538 E4.6874
G1 X153.512 Y51.495 E4.79517
G1 X156.044 Y52.37 E4.9021
G1 X158.596 Y53.174 E5.00889
G1 X161.373 Y53.969 E5.12418
G1 X162.144 Y54.279 E5.15734
G1 X162.741 Y54.635 E5.18509
G1 X163.368 Y55.159 E5.2177
G1 X163.824 Y55.683 E5.24542
G1 X164.258 Y56.375 E5.27802
G1 X164.528 Y57.013 E5.30568
G1 X164.728 Y57.801 E5.33812
G1 X164.791 Y58.388 E5.36169
G1 X164.8 Y73.899 E5.98076
G1 X164.79 Y74.646 E6.01058
G1 X164.761 Y75.357 E6.03898
G1 X164.682 Y78.123 E6.14942
G1 X164.682 Y80.802 E6.25635
G1 X164.798 Y84.592 E6.40769
G1 X164.8 Y118.947 E7.77887
G1 X164.785 Y119.781 E7.81216
G1 X164.692 Y120.568 E7.84379
G1 X164.525 Y121.177 E7.86899
G1 X164.16 Y121.981 E7.90424
G1 X163.773 Y122.56 E7.93203
G1 X163.215 Y123.162 E7.96479
G1 X162.616 Y123.625 E7.99501
G1 X161.95 Y123.989 E8.0253
G1 X161.25 Y124.24 E8.05498
G1 X160.696 Y124.356 E8.07757
G1 X159.76 Y124.419 E8.11502
G1 X40.643 Y124.42 E12.86923
G1 X39.875 Y124.407 E12.89989
G1 X39.05 Y124.311 E12.93304
G1 X38.441 Y124.144 E12.95824
G1 X37.693 Y123.809 E12.99095
G1 X37.009 Y123.352 E13.02379
G1 X36.457 Y122.832 E13.05405
G1 X35.994 Y122.233 E13.08427
G1 X35.631 Y121.569 E13.11447
G1 X35.379 Y120.861 E13.14447
G1 X35.242 Y120.172 E13.17251
G1 X35.205 Y119.719 E13.19065
G1 X35.2 Y85.016 E14.57572
G1 X35.21 Y84.289 E14.60474
G1 X35.239 Y83.58 E14.63306
G1 X35.318 Y80.808 E14.74374
G1 X35.318 Y78.12 E14.85102
G1 X35.202 Y74.345 E15.00176
G1 X35.2 Y59.156 E15.60799
G1 X35.214 Y58.419 E15.63741
G1 X35.31 Y57.605 E15.67012
G1 X35.475 Y57 E15.69515
G1 X35.78 Y56.305 E15.72545
G1 X36.234 Y55.609 E15.75861
G1 X36.794 Y55.009 E15.79137
G1 X37.398 Y54.543 E15.82182
G0 F3600 X37.591 Y54.893
G1 F1800 X38.192 Y54.561 E15.84922
G1 X38.744 Y54.351 E15.87279
G1 X39.559 Y54.112 E15.90669
G1 X40.853 Y53.755 E15.96027
G1 X43.423 Y52.964 E16.06759
G1 X46.006 Y52.089 E16.17644
G1 X48.528 Y51.154 E16.28379
G1 X51.01 Y50.152 E16.39062
G1 X53.525 Y49.055 E16.50013
G1 X55.944 Y47.918 E16.60681
G1 X58.372 Y46.69 E16.71541
G1 X60.801 Y45.375 E16.82565
G1 X62.047 Y44.681 E16.88258
G1 X62.507 Y44.47 E16.90277
G1 X63.237 Y44.258 E16.93311
G1 X64.113 Y44.167 E16.96827
G1 X65.108 Y44.179 E17.00798
G1 X66.575 Y44.387 E17.06712
G1 X66.738 Y44.399 E17.07364
G1 X67.932 Y44.571 E17.12179
G1 X70.592 Y44.875 E17.22865
G1 X73.289 Y45.11 E17.3367
G1 X75.981 Y45.263 E17.44431
G1 X78.741 Y45.343 E17.55452
G1 X80.189 Y45.355 E17.61231
G1 X119.843 Y45.354 E19.19499
G1 X122.606 Y45.314 E19.30528
G1 X125.323 Y45.199 E19.41382
G1 X128.012 Y45.008 E19.52141
G1 X130.676 Y44.744 E19.62826
G1 X133.407 Y44.395 E19.73814
G1 X134.918 Y44.176 E19.79908
G1 X135.948 Y44.169 E19.84019
G1 X136.679 Y44.241 E19.86951
G1 X137.297 Y44.402 E19.895
G1 X138.022 Y44.717 E19.92655
G1 X141.009 Y46.369 E20.06278
G1 X143.448 Y47.624 E20.17226
G1 X145.893 Y48.794 E20.28044
G1 X148.345 Y49.886 E20.38757
G1 X150.845 Y50.912 E20.49543
G1 X153.381 Y51.873 E20.60367
G1 X155.913 Y52.748 E20.71059
G1 X158.486 Y53.559 E20.81827
G1 X161.263 Y54.354 E20.93356
G1 X161.941 Y54.624 E20.96268
G1 X162.486 Y54.944 E20.98791
G1 X163.068 Y55.424 E21.01802
G1 X163.487 Y55.898 E21.04327
G1 X163.891 Y56.533 E21.07331
G1 X164.141 Y57.113 E21.09851
G1 X164.33 Y57.844 E21.12865
G1 X164.393 Y58.431 E21.15221
G1 X164.4 Y73.894 E21.76937
G1 X164.39 Y74.63 E21.79875
G1 X164.361 Y75.341 E21.82715
G1 X164.282 Y78.112 E21.9378
G1 X164.282 Y80.802 E22.04516
G1 X164.398 Y84.592 E22.1965
G1 X164.4 Y118.94 E23.5674
G1 X164.387 Y119.737 E23.59921
G1 X164.306 Y120.462 E23.62833
G1 X164.139 Y121.071 E23.65353
G1 X163.827 Y121.759 E23.68369
G1 X163.44 Y122.338 E23.71148
G1 X162.968 Y122.847 E23.73919
G1 X162.422 Y123.275 E23.76688
G1 X161.813 Y123.613 E23.79468
G1 X161.168 Y123.848 E23.82207
G1 X160.614 Y123.964 E23.84467
G1 X159.76 Y124.019 E23.87882
G1 X40.65 Y124.02 E28.63276
G1 X39.882 Y124.007 E28.66342
G1 X39.156 Y123.925 E28.69258
G1 X38.547 Y123.758 E28.71778
G1 X37.858 Y123.445 E28.74798
G1 X37.281 Y123.059 E28.77569
G1 X36.772 Y122.586 E28.80342
G1 X36.344 Y122.039 E28.83114
G1 X36.007 Y121.432 E28.85885
G1 X35.771 Y120.782 E28.88645
G1 X35.641 Y120.139 E28.91264
G1 X35.604 Y119.686 E28.93078
G1 X35.6 Y85.022 E30.31429
G1 X35.61 Y84.305 E30.34291
G1 X35.639 Y83.596 E30.37123
G1 X35.718 Y80.819 E30.48212
G1 X35.718 Y78.12 E30.58984
G1 X35.602 Y74.345 E30.74058
G1 X35.6 Y59.164 E31.34648
G1 X35.614 Y58.427 E31.3759
G1 X35.697 Y57.708 E31.40479
G1 X35.843 Y57.158 E31.4275
G1 X36.115 Y56.524 E31.45504
G1 X36.569 Y55.828 E31.48821
G1 X37.04 Y55.324 E31.51574
G1 X37.591 Y54.893 E31.54366
G0 F3600 X37.786 Y55.242
G1 F1800 X38.335 Y54.935 E31.56876
G1 X38.857 Y54.735 E31.59107
G1 X39.665 Y54.498 E31.62468
G1 X40.959 Y54.141 E31.67826
G1 X43.551 Y53.343 E31.7865
G1 X46.134 Y52.468 E31.89535
G1 X48.678 Y51.525 E32.00364
G1 X51.171 Y50.519 E32.11093
G1 X53.685 Y49.422 E32.22041
G1 X56.125 Y48.275 E32.32802
G1 X58.563 Y47.042 E32.43706
G1 X60.992 Y45.726 E32.54732
G1 X62.214 Y45.045 E32.60316
G1 X62.674 Y44.834 E32.62336
G1 X63.346 Y44.643 E32.65124
G1 X64.11 Y44.567 E32.68188
G1 X65.052 Y44.575 E32.71948
G1 X66.533 Y44.785 E32.77918
G1 X66.681 Y44.795 E32.7851
G1 X67.875 Y44.967 E32.83325
G1 X70.552 Y45.273 E32.94079
G1 X73.266 Y45.509 E33.04952
G1 X75.969 Y45.663 E33.15758
G1 X78.729 Y45.743 E33.26778
G1 X80.186 Y45.755 E33.32594
G1 X119.849 Y45.754 E34.90897
G1 X122.623 Y45.714 E35.0197
G1 X125.34 Y45.599 E35.12824
G1 X128.047 Y45.407 E35.23655
G1 X130.727 Y45.141 E35.34404
G1 X133.458 Y44.792 E35.45393
G1 X134.921 Y44.576 E35.51295
G1 X135.951 Y44.569 E35.55406
G1 X136.581 Y44.629 E35.57932
G1 X137.138 Y44.769 E35.60224
G1 X137.828 Y45.067 E35.63224
G1 X140.826 Y46.725 E35.76898
G1 X143.275 Y47.985 E35.8789
G1 X145.72 Y49.155 E35.98708
G1 X148.193 Y50.256 E36.09513
G1 X150.703 Y51.286 E36.20341
G1 X153.25 Y52.251 E36.31212
G1 X155.793 Y53.13 E36.41951
G1 X158.376 Y53.944 E36.5276
G1 X161.118 Y54.727 E36.64142
G1 X161.738 Y54.969 E36.66798
G1 X162.283 Y55.289 E36.6932
G1 X162.77 Y55.691 E36.71841
G1 X163.151 Y56.115 E36.74116
G1 X163.525 Y56.694 E36.76867
G1 X163.754 Y57.215 E36.79138
G1 X163.932 Y57.887 E36.81913
G1 X163.995 Y58.474 E36.84269
G1 X164 Y73.888 E37.4579
G1 X163.99 Y74.614 E37.48688
G1 X163.961 Y75.325 E37.51528
G1 X163.882 Y78.101 E37.62612
G1 X163.882 Y80.802 E37.73392
G1 X163.998 Y84.592 E37.88526
G1 X164 Y118.934 E39.25592
G1 X163.989 Y119.695 E39.2863
G1 X163.92 Y120.356 E39.31283
G1 X163.753 Y120.965 E39.33803
G1 X163.493 Y121.539 E39.36318
G1 X163.145 Y122.068 E39.38845
G1 X162.719 Y122.534 E39.41365
G1 X162.225 Y122.927 E39.43885
G1 X161.674 Y123.238 E39.4641
G1 X161.086 Y123.456 E39.48913
G1 X160.532 Y123.572 E39.51172
G1 X159.76 Y123.619 E39.54259
G1 X40.656 Y123.62 E44.29629
G1 X39.924 Y123.609 E44.32551
G1 X39.262 Y123.539 E44.35208
G1 X38.653 Y123.372 E44.37728
G1 X38.078 Y123.111 E44.40248
G1 X37.551 Y122.764 E44.42767
G1 X37.085 Y122.337 E44.45289
G1 X36.692 Y121.842 E44.47812
G1 X36.382 Y121.293 E44.50328
G1 X36.163 Y120.701 E44.52848
G1 X36.04 Y120.106 E44.55272
G1 X36.003 Y119.653 E44.57087
G1 X36 Y85.028 E45.95282
G1 X36.01 Y84.321 E45.98104
G1 X36.039 Y83.612 E46.00937
G1 X36.118 Y80.83 E46.12045
G1 X36.118 Y78.12 E46.22861
G1 X36.002 Y74.345 E46.37935
G1 X36 Y59.171 E46.98498
G1 X36.012 Y58.47 E47.01296
G1 X36.084 Y57.811 E47.03942
G1 X36.23 Y57.261 E47.06213
G1 X36.452 Y56.74 E47.08473
G1 X36.863 Y56.099 E47.11512
G1 X37.289 Y55.637 E47.1402
G1 X37.786 Y55.242 E47.16554
G0 F3600 X37.984 Y55.59
G1 F1800 X38.478 Y55.309 E47.18823
G1 X39 Y55.109 E47.21054
G1 X39.771 Y54.884 E47.24259
G1 X41.065 Y54.527 E47.29617
G1 X43.679 Y53.722 E47.40533
G1 X46.262 Y52.847 E47.51418
G1 X48.828 Y51.896 E47.6234
G1 X51.332 Y50.886 E47.73117
G1 X53.845 Y49.789 E47.84061
G1 X56.306 Y48.632 E47.94914
G1 X58.754 Y47.394 E48.05863
G1 X61.183 Y46.077 E48.16891
G1 X62.381 Y45.409 E48.22366
G1 X62.841 Y45.198 E48.24386
G1 X63.387 Y45.041 E48.26653
G1 X64.108 Y44.967 E48.29546
G1 X64.996 Y44.971 E48.3309
G1 X66.49 Y45.183 E48.39113
G1 X66.624 Y45.191 E48.39649
G1 X67.818 Y45.363 E48.44463
G1 X70.517 Y45.672 E48.55306
G1 X73.231 Y45.907 E48.66179
G1 X75.957 Y46.063 E48.77077
G1 X78.717 Y46.143 E48.88097
G1 X80.183 Y46.155 E48.93948
G1 X119.855 Y46.154 E50.52288
G1 X122.64 Y46.114 E50.63404
G1 X125.357 Y45.999 E50.74258
G1 X128.082 Y45.806 E50.85162
G1 X130.778 Y45.538 E50.95975
G1 X133.509 Y45.189 E51.06964
G1 X134.979 Y44.972 E51.12894
G1 X135.917 Y44.968 E51.16638
G1 X136.483 Y45.017 E51.18906
G1 X137.04 Y45.157 E51.21198
G1 X137.634 Y45.417 E51.23786
G1 X140.643 Y47.081 E51.37509
G1 X143.102 Y48.346 E51.48546
G1 X145.547 Y49.516 E51.59365
G1 X148.041 Y50.626 E51.7026
G1 X150.561 Y51.66 E51.81132
G1 X153.119 Y52.629 E51.92049
G1 X155.673 Y53.512 E52.02835
G1 X158.266 Y54.329 E52.13686
G1 X161.008 Y55.112 E52.25067
G1 X161.538 Y55.316 E52.27334
G1 X162.031 Y55.6 E52.29604
G1 X162.472 Y55.958 E52.31871
G1 X162.853 Y56.382 E52.34147
G1 X163.16 Y56.859 E52.36411
G1 X163.368 Y57.32 E52.38429
G1 X163.534 Y57.93 E52.40952
G1 X163.597 Y58.517 E52.43309
G1 X163.6 Y73.882 E53.04634
G1 X163.59 Y74.598 E53.07492
G1 X163.561 Y75.309 E53.10332
G1 X163.482 Y78.09 E53.21436
G1 X163.482 Y80.802 E53.3226
G1 X163.56 Y83.551 E53.43236
G1 X163.598 Y84.592 E53.47394
G1 X163.6 Y118.929 E54.8444
G1 X163.591 Y119.656 E54.87342
G1 X163.533 Y120.253 E54.89736
G1 X163.387 Y120.803 E54.92007
G1 X163.157 Y121.322 E54.94273
G1 X162.848 Y121.8 E54.96545
G1 X162.467 Y122.223 E54.98817
G1 X162.026 Y122.58 E55.01081
G1 X161.532 Y122.864 E55.03356
G1 X161.001 Y123.065 E55.05622
G1 X160.507 Y123.173 E55.0764
G1 X159.76 Y123.219 E55.10627
G1 X40.661 Y123.22 E59.85977
G1 X39.963 Y123.211 E59.88763
G1 X39.365 Y123.152 E59.91161
G1 X38.815 Y123.006 E59.93433
G1 X38.295 Y122.775 E59.95704
G1 X37.819 Y122.467 E59.97966
G1 X37.396 Y122.086 E60.00239
G1 X37.039 Y121.643 E60.02509
G1 X36.756 Y121.151 E60.04775
G1 X36.554 Y120.619 E60.07046
G1 X36.439 Y120.073 E60.09273
G1 X36.402 Y119.62 E60.11087
G1 X36.4 Y85.034 E61.49127
G1 X36.41 Y84.337 E61.51909
G1 X36.439 Y83.628 E61.54742
G1 X36.518 Y80.841 E61.6587
G1 X36.518 Y78.12 E61.7673
G1 X36.402 Y74.345 E61.91804
G1 X36.4 Y59.177 E62.52342
G1 X36.41 Y58.511 E62.55001
G1 X36.471 Y57.914 E62.57396
G1 X36.617 Y57.364 E62.59667
G1 X36.819 Y56.9 E62.61687
G1 X37.159 Y56.368 E62.64207
G1 X37.54 Y55.948 E62.6647
G1 X37.984 Y55.59 E62.68747
G0 F3600 X38.185 Y55.936
G1 F1800 X38.622 Y55.682 E62.70764
G1 X39.112 Y55.493 E62.7286
G1 X39.878 Y55.27 E62.76044
G1 X41.172 Y54.912 E62.81403
G1 X43.807 Y54.101 E62.92407
G1 X46.39 Y53.226 E63.03291
G1 X48.978 Y52.267 E63.14307
G1 X51.493 Y51.253 E63.2513
G1 X54.005 Y50.156 E63.3607
G1 X56.487 Y48.989 E63.47017
G1 X58.945 Y47.746 E63.5801
G1 X61.374 Y46.428 E63.6904
G1 X62.548 Y45.773 E63.74406
G1 X63.008 Y45.562 E63.76426
G1 X63.495 Y45.426 E63.78444
G1 X64.108 Y45.367 E63.80902
G1 X64.94 Y45.367 E63.84223
G1 X66.458 Y45.582 E63.90342
G1 X66.567 Y45.587 E63.90777
G1 X67.761 Y45.759 E63.95592
G1 X70.483 Y46.071 E64.06527
G1 X73.197 Y46.305 E64.17399
G1 X75.945 Y46.463 E64.28385
G1 X78.705 Y46.543 E64.39406
G1 X80.18 Y46.555 E64.45293
G1 X119.861 Y46.554 E66.03668
G1 X122.657 Y46.514 E66.14829
G1 X125.374 Y46.399 E66.25683
G1 X128.117 Y46.205 E66.36658
G1 X130.829 Y45.935 E66.47536
G1 X133.56 Y45.586 E66.58525
G1 X135.037 Y45.368 E66.64483
G1 X135.886 Y45.367 E66.67872
G1 X136.39 Y45.406 E66.6989
G1 X136.881 Y45.524 E66.71905
G1 X137.44 Y45.767 E66.74338
G1 X140.46 Y47.437 E66.88111
G1 X142.929 Y48.707 E66.99193
G1 X145.374 Y49.877 E67.10011
G1 X147.889 Y50.996 E67.20998
G1 X150.419 Y52.034 E67.31912
G1 X152.988 Y53.007 E67.42877
G1 X155.553 Y53.894 E67.53709
G1 X158.156 Y54.714 E67.64601
G1 X160.868 Y55.487 E67.75857
G1 X161.341 Y55.664 E67.77872
G1 X161.782 Y55.913 E67.79894
G1 X162.177 Y56.228 E67.8191
G1 X162.518 Y56.601 E67.83927
G1 X162.795 Y57.024 E67.85945
G1 X163.003 Y57.485 E67.87964
G1 X163.136 Y57.973 E67.89983
G1 X163.199 Y58.56 E67.92339
G1 X163.2 Y73.876 E68.53468
G1 X163.19 Y74.582 E68.56287
G1 X163.161 Y75.293 E68.59127
G1 X163.082 Y78.079 E68.70251
G1 X163.082 Y80.802 E68.81119
G1 X163.16 Y83.566 E68.92155
G1 X163.198 Y84.592 E68.96253
G1 X163.2 Y118.924 E70.33279
G1 X163.191 Y119.651 E70.36181
G1 X163.145 Y120.154 E70.38197
G1 X163.02 Y120.644 E70.40215
G1 X162.819 Y121.108 E70.42233
G1 X162.548 Y121.535 E70.44252
G1 X162.213 Y121.914 E70.46271
G1 X161.823 Y122.235 E70.48287
G1 X161.387 Y122.491 E70.50305
G1 X160.916 Y122.674 E70.52322
G1 X160.422 Y122.782 E70.5434
G1 X159.76 Y122.819 E70.56986
G1 X40.666 Y122.82 E75.32316
G1 X39.968 Y122.811 E75.35102
G1 X39.464 Y122.764 E75.37122
G1 X38.974 Y122.639 E75.39141
G1 X38.51 Y122.438 E75.41159
G1 X38.084 Y122.167 E75.43174
G1 X37.705 Y121.832 E75.45193
G1 X37.384 Y121.441 E75.47212
G1 X37.129 Y121.005 E75.49228
G1 X36.945 Y120.534 E75.51246
G1 X36.838 Y120.04 E75.53264
G1 X36.801 Y119.587 E75.55078
G1 X36.8 Y85.04 E76.92962
G1 X36.81 Y84.353 E76.95704
G1 X36.839 Y83.644 E76.98537
G1 X36.918 Y80.852 E77.09685
G1 X36.918 Y78.12 E77.20589
G1 X36.839 Y75.344 E77.31673
G1 X36.802 Y74.345 E77.35663
G1 X36.8 Y59.183 E77.96177
G1 X36.81 Y58.517 E77.98836
G1 X36.858 Y58.014 E78.00853
G1 X36.984 Y57.524 E78.02872
G1 X37.186 Y57.06 E78.04892
G1 X37.458 Y56.634 E78.06909
G1 X37.794 Y56.257 E78.08925
G1 X38.185 Y55.936 E78.10944
G1 F2700 E71.60944
G1 F600 Z1.24
;MESH:D435_mount.stl
G0 F3600 X157.897 Y62.758 Z1.24
;TYPE:WALL-INNER
G1 F600 Z0.24
G1 F2700 E78.10944
G1 F1541.8 X158.213 Y63.218 E78.13544
G1 F1392.6 X158.25 Y63.556 E78.15298
G1 F1440 X158.25 Y73.306 E78.63941
G1 X158.75 Y73.306 E78.66436
G1 F1454.5 X158.755 Y63.008 E79.17299
G1 F1618 X158.8 Y62.406 E79.19979
G1 F1800 X158.8 Y59.756 E79.30556
G1 X134.156 Y59.756 E80.28916
G1 X133.708 Y59.651 E80.30752
G1 X133.306 Y59.401 E80.32641
G1 X133.139 Y59.194 E80.33703
G1 X132.956 Y58.661 E80.35952
G1 X132.956 Y50.689 E80.6777
G1 X132.544 Y50.752 E80.69434
G1 X67.452 Y50.752 E83.2923
G1 X67.041 Y50.689 E83.30889
G1 X67.04 Y58.703 E83.62875
G1 X66.935 Y59.004 E83.64147
G1 X66.724 Y59.362 E83.65806
G1 X66.527 Y59.54 E83.66866
G1 X66.267 Y59.668 E83.68022
