;FLAVOR:Marlin
;TIME:8838
;Filament used: 9.86403m
;Layer height: 0.16
;MINX:35.2
;MINY:82.21
;MINZ:0.24
;MAXX:164.8
;MAXY:117.8
;MAXZ:50.2
;TARGET_MACHINE.NAME:Ulti-steel
;Generated with Cura_SteamEngine 5.7.1
M140 S75
M105
M190 S75
M104 S235
M105
M109 S235
M82 ;absolute extrusion mode
G21 ;metric values
G90 ;absolute positioning
M82 ;set extruder to absolute mode
M107 ;start with the fan off
G28 X0 Y0 ;move X/Y to min endstops
G28 Z0 ;move Z to min endstops
G1 Z15.0 F9000 ;move the platform down 15mm
G92 E0 ;zero the extruded length
G1 F200 E6 ;extrude 6 mm of feed stock
G92 E0 ;zero the extruded length again
G1 F9000
;Put printing message on LCD screen
M117 Printing...
G92 E0
G92 E0
G1 F2700 E-6.5
;LAYER_COUNT:307
;LAYER:0
M107
G1 F600 Z1.24
G0 F3600 X38.05 Y92.63 Z1.24
;TYPE:SKIRT
G1 F600 Z0.24
G1 F2700 E0
G1 F1800 X38.631 Y92.41 E0.0248
G1 X39.453 Y92.169 E0.05898
G1 X40.747 Y91.812 E0.11256
G1 X43.295 Y91.028 E0.21896
G1 X45.878 Y90.153 E0.32781
G1 X48.378 Y89.226 E0.43423
G1 X50.849 Y88.228 E0.54059
G1 X53.365 Y87.131 E0.65014
G1 X55.763 Y86.004 E0.75589
G1 X58.191 Y84.776 E0.86449
G1 X60.611 Y83.466 E0.97432
G1 X61.88 Y82.76 E1.03228
G1 X62.34 Y82.549 E1.05248
G1 X63.16 Y82.307 E1.0866
G1 X64.118 Y82.21 E1.12503
G1 X65.164 Y82.226 E1.16679
G1 X66.616 Y82.432 E1.22532
G1 X66.795 Y82.446 E1.23248
G1 X67.989 Y82.618 E1.28063
G1 X70.632 Y82.92 E1.38681
G1 X73.314 Y83.154 E1.49426
G1 X75.993 Y83.306 E1.60135
G1 X78.753 Y83.386 E1.71156
G1 X80.192 Y83.398 E1.76899
G1 X119.837 Y83.397 E3.35131
G1 X122.589 Y83.357 E3.46116
G1 X125.306 Y83.242 E3.5697
G1 X127.981 Y83.052 E3.67673
G1 X130.625 Y82.79 E3.78278
G1 X133.356 Y82.441 E3.89266
G1 X134.915 Y82.219 E3.95552
G1 X135.987 Y82.214 E3.9983
G1 X136.78 Y82.297 E4.03012
G1 X137.456 Y82.478 E4.05806
G1 X138.216 Y82.81 E4.09116
G1 X141.192 Y84.456 E4.22689
G1 X143.621 Y85.706 E4.33592
G1 X146.066 Y86.876 E4.44411
G1 X148.497 Y87.959 E4.55033
G1 X150.987 Y88.981 E4.65775
G1 X153.512 Y89.938 E4.76553
G1 X156.044 Y90.813 E4.87245
G1 X158.596 Y91.617 E4.97924
G1 X161.373 Y92.412 E5.09453
G1 X162.144 Y92.722 E5.12769
G1 X162.741 Y93.078 E5.15544
G1 X163.368 Y93.602 E5.18805
G1 X163.824 Y94.126 E5.21577
G1 X164.258 Y94.818 E5.24838
G1 X164.528 Y95.456 E5.27603
G1 X164.728 Y96.244 E5.30847
G1 X164.791 Y96.831 E5.33204
G1 X164.8 Y112.327 E5.95052
G1 X164.785 Y113.161 E5.98381
G1 X164.692 Y113.948 E6.01544
G1 X164.525 Y114.557 E6.04064
G1 X164.16 Y115.361 E6.07588
G1 X163.773 Y115.94 E6.10368
G1 X163.215 Y116.542 E6.13644
G1 X162.616 Y117.005 E6.16666
G1 X161.949 Y117.369 E6.19698
G1 X161.245 Y117.62 E6.22681
G1 X160.554 Y117.758 E6.25494
G1 X160.105 Y117.795 E6.27292
G1 X157.63 Y117.8 E6.3717
G1 X156.822 Y117.783 E6.40396
G1 X156.113 Y117.702 E6.43244
G1 X155.266 Y117.488 E6.46731
G1 X154.25 Y116.979 E6.51266
G1 X151.849 Y115.813 E6.6192
G1 X149.346 Y114.681 E6.72884
G1 X146.82 Y113.626 E6.83809
G1 X144.333 Y112.669 E6.94445
G1 X141.856 Y111.797 E7.04926
G1 X139.227 Y110.953 E7.15947
G1 X136.652 Y110.204 E7.2665
G1 X134.075 Y109.536 E7.37275
G1 X131.434 Y108.928 E7.48092
G1 X128.782 Y108.397 E7.58886
G1 X126.169 Y107.949 E7.69468
G1 X123.482 Y107.567 E7.803
G1 X120.828 Y107.268 E7.9096
G1 X118.089 Y107.032 E8.01932
G1 X115.472 Y106.887 E8.12393
G1 X111.368 Y106.8 E8.28777
G1 X88.651 Y106.8 E9.19445
G1 X85.898 Y106.84 E9.30434
G1 X83.181 Y106.955 E9.41288
G1 X80.49 Y107.146 E9.52055
G1 X77.866 Y107.406 E9.6258
G1 X75.142 Y107.754 E9.7354
G1 X72.486 Y108.171 E9.84271
G1 X69.884 Y108.655 E9.94834
G1 X67.237 Y109.222 E10.05638
G1 X64.601 Y109.872 E10.16474
G1 X62.01 Y110.581 E10.27196
G1 X59.451 Y111.367 E10.3788
G1 X56.856 Y112.242 E10.4881
G1 X54.403 Y113.146 E10.59244
G1 X51.871 Y114.164 E10.70136
G1 X49.377 Y115.249 E10.80992
G1 X46.933 Y116.395 E10.91765
G1 X45.955 Y116.889 E10.96138
G1 X45.074 Y117.318 E11.00049
G1 X44.265 Y117.616 E11.0349
G1 X43.574 Y117.756 E11.06304
G1 X43.115 Y117.795 E11.08143
G1 X40.643 Y117.8 E11.18009
G1 X39.875 Y117.787 E11.21075
G1 X39.05 Y117.691 E11.2439
G1 X38.441 Y117.524 E11.2691
G1 X37.693 Y117.189 E11.30181
G1 X37.009 Y116.732 E11.33465
G1 X36.457 Y116.212 E11.36491
G1 X35.994 Y115.613 E11.39513
G1 X35.631 Y114.949 E11.42533
G1 X35.379 Y114.241 E11.45533
G1 X35.242 Y113.552 E11.48337
G1 X35.205 Y113.099 E11.50151
G1 X35.2 Y97.599 E12.12015
G1 X35.214 Y96.862 E12.14957
G1 X35.31 Y96.048 E12.18228
G1 X35.475 Y95.443 E12.20731
G1 X35.78 Y94.748 E12.2376
G1 X36.234 Y94.052 E12.27077
G1 X36.794 Y93.452 E12.30352
G1 X37.398 Y92.986 E12.33397
G1 X38.05 Y92.63 E12.36362
G0 F3600 X38.192 Y93.004
G1 F1800 X38.744 Y92.794 E12.38719
G1 X39.559 Y92.555 E12.42109
G1 X40.853 Y92.198 E12.47467
G1 X43.423 Y91.407 E12.58199
G1 X46.006 Y90.532 E12.69084
G1 X48.528 Y89.597 E12.79819
G1 X51.01 Y88.595 E12.90502
G1 X53.525 Y87.498 E13.01453
G1 X55.944 Y86.361 E13.12121
G1 X58.372 Y85.133 E13.22981
G1 X60.801 Y83.818 E13.34005
G1 X62.047 Y83.124 E13.39698
G1 X62.507 Y82.913 E13.41718
G1 X63.237 Y82.701 E13.44752
G1 X64.113 Y82.61 E13.48267
G1 X65.108 Y82.622 E13.52238
G1 X66.575 Y82.83 E13.58152
G1 X66.738 Y82.842 E13.58804
G1 X67.932 Y83.014 E13.63619
G1 X70.592 Y83.318 E13.74305
G1 X73.289 Y83.553 E13.8511
G1 X75.981 Y83.706 E13.95871
G1 X78.741 Y83.786 E14.06892
G1 X80.189 Y83.798 E14.12671
G1 X119.843 Y83.797 E15.70939
G1 X122.606 Y83.757 E15.81968
G1 X125.323 Y83.642 E15.92822
G1 X128.012 Y83.451 E16.03581
G1 X130.676 Y83.187 E16.14266
G1 X133.407 Y82.838 E16.25254
G1 X134.918 Y82.619 E16.31348
G1 X135.948 Y82.612 E16.35459
G1 X136.679 Y82.684 E16.38391
G1 X137.297 Y82.845 E16.4094
G1 X138.022 Y83.16 E16.44095
G1 X141.009 Y84.812 E16.57718
G1 X143.448 Y86.067 E16.68666
G1 X145.893 Y87.237 E16.79484
G1 X148.345 Y88.329 E16.90197
G1 X150.845 Y89.355 E17.00983
G1 X153.381 Y90.316 E17.11807
G1 X155.913 Y91.191 E17.22499
G1 X158.486 Y92.002 E17.33267
G1 X161.263 Y92.797 E17.44796
G1 X161.941 Y93.067 E17.47708
G1 X162.486 Y93.387 E17.50231
G1 X163.068 Y93.867 E17.53242
G1 X163.487 Y94.341 E17.55767
G1 X163.891 Y94.976 E17.58771
G1 X164.141 Y95.556 E17.61292
G1 X164.33 Y96.287 E17.64305
G1 X164.393 Y96.874 E17.66661
G1 X164.4 Y112.32 E18.2831
G1 X164.387 Y113.117 E18.31491
G1 X164.306 Y113.842 E18.34403
G1 X164.139 Y114.451 E18.36923
G1 X163.827 Y115.139 E18.39938
G1 X163.44 Y115.718 E18.42718
G1 X162.968 Y116.227 E18.45488
G1 X162.422 Y116.655 E18.48257
G1 X161.813 Y116.993 E18.51037
G1 X161.165 Y117.228 E18.53788
G1 X160.521 Y117.359 E18.56411
G1 X160.072 Y117.396 E18.58209
G1 X157.638 Y117.4 E18.67924
G1 X156.865 Y117.385 E18.7101
G1 X156.211 Y117.314 E18.73635
G1 X155.407 Y117.111 E18.76945
G1 X154.429 Y116.621 E18.81311
G1 X152.014 Y115.448 E18.92027
G1 X149.511 Y114.317 E19.02989
G1 X146.974 Y113.257 E19.13963
G1 X144.477 Y112.296 E19.24642
G1 X141.978 Y111.416 E19.35216
G1 X139.349 Y110.572 E19.46237
G1 X136.764 Y109.82 E19.56982
G1 X134.165 Y109.146 E19.67698
G1 X131.524 Y108.538 E19.78514
G1 X128.857 Y108.004 E19.8937
G1 X126.225 Y107.553 E20.00028
G1 X123.538 Y107.171 E20.10861
G1 X120.862 Y106.869 E20.21609
G1 X118.123 Y106.634 E20.32581
G1 X115.48 Y106.487 E20.43146
G1 X111.376 Y106.4 E20.5953
G1 X88.645 Y106.4 E21.50254
G1 X85.881 Y106.44 E21.61287
G1 X83.164 Y106.555 E21.72141
G1 X80.459 Y106.747 E21.82964
G1 X77.815 Y107.009 E21.93569
G1 X75.091 Y107.357 E22.04529
G1 X72.424 Y107.776 E22.15304
G1 X69.8 Y108.264 E22.25957
G1 X67.153 Y108.831 E22.36761
G1 X64.495 Y109.486 E22.47687
G1 X61.904 Y110.196 E22.5841
G1 X59.323 Y110.988 E22.69185
G1 X56.728 Y111.863 E22.80115
G1 X54.254 Y112.775 E22.90639
G1 X51.711 Y113.797 E23.01578
G1 X49.217 Y114.882 E23.12433
G1 X46.763 Y116.033 E23.23251
G1 X45.78 Y116.529 E23.27646
G1 X44.899 Y116.958 E23.31557
G1 X44.184 Y117.224 E23.34601
G1 X43.54 Y117.357 E23.37226
G1 X43.081 Y117.396 E23.39065
G1 X40.65 Y117.4 E23.48767
G1 X39.882 Y117.387 E23.51833
G1 X39.156 Y117.305 E23.54749
G1 X38.547 Y117.138 E23.57269
G1 X37.858 Y116.825 E23.6029
G1 X37.281 Y116.439 E23.63061
G1 X36.772 Y115.966 E23.65834
G1 X36.344 Y115.419 E23.68606
G1 X36.007 Y114.812 E23.71377
G1 X35.771 Y114.162 E23.74137
G1 X35.641 Y113.519 E23.76755
G1 X35.604 Y113.066 E23.78569
G1 X35.6 Y97.607 E24.40269
G1 X35.614 Y96.87 E24.43211
G1 X35.697 Y96.151 E24.461
G1 X35.843 Y95.601 E24.48371
G1 X36.115 Y94.967 E24.51125
G1 X36.569 Y94.271 E24.54442
G1 X37.04 Y93.767 E24.57195
G1 X37.591 Y93.336 E24.59987
G1 X38.192 Y93.004 E24.62727
G0 F3600 X38.335 Y93.378
G1 F1800 X38.857 Y93.178 E24.64958
G1 X39.665 Y92.941 E24.68319
G1 X40.959 Y92.584 E24.73677
G1 X43.551 Y91.786 E24.84501
G1 X46.134 Y90.911 E24.95386
G1 X48.678 Y89.968 E25.06215
G1 X51.171 Y88.962 E25.16944
G1 X53.685 Y87.865 E25.27892
G1 X56.125 Y86.718 E25.38653
G1 X58.563 Y85.485 E25.49557
G1 X60.992 Y84.169 E25.60583
G1 X62.214 Y83.488 E25.66167
G1 X62.674 Y83.277 E25.68186
G1 X63.346 Y83.086 E25.70975
G1 X64.11 Y83.01 E25.74039
G1 X65.052 Y83.018 E25.77799
G1 X66.533 Y83.228 E25.83769
G1 X66.681 Y83.238 E25.84361
G1 X67.875 Y83.41 E25.89176
G1 X70.552 Y83.716 E25.9993
G1 X73.266 Y83.952 E26.10803
G1 X75.969 Y84.106 E26.21609
G1 X78.729 Y84.186 E26.32629
G1 X80.186 Y84.198 E26.38444
G1 X119.849 Y84.197 E27.96748
G1 X122.623 Y84.157 E28.07821
G1 X125.34 Y84.042 E28.18675
G1 X128.047 Y83.85 E28.29506
G1 X130.727 Y83.584 E28.40255
G1 X133.458 Y83.235 E28.51244
G1 X134.921 Y83.019 E28.57146
G1 X135.951 Y83.012 E28.61257
G1 X136.581 Y83.072 E28.63783
G1 X137.138 Y83.212 E28.66075
G1 X137.828 Y83.51 E28.69075
G1 X140.826 Y85.168 E28.82749
G1 X143.275 Y86.428 E28.93741
G1 X145.72 Y87.598 E29.04559
G1 X148.193 Y88.699 E29.15364
G1 X150.703 Y89.729 E29.26192
G1 X153.25 Y90.694 E29.37063
G1 X155.793 Y91.573 E29.47802
G1 X158.376 Y92.387 E29.58611
G1 X161.118 Y93.17 E29.69992
G1 X161.738 Y93.412 E29.72649
G1 X162.283 Y93.732 E29.75171
G1 X162.77 Y94.134 E29.77692
G1 X163.151 Y94.558 E29.79967
G1 X163.525 Y95.137 E29.82718
G1 X163.754 Y95.658 E29.84989
G1 X163.932 Y96.33 E29.87764
G1 X163.995 Y96.917 E29.9012
G1 X164 Y112.314 E30.51573
G1 X163.989 Y113.075 E30.54611
G1 X163.92 Y113.736 E30.57263
G1 X163.753 Y114.345 E30.59783
G1 X163.493 Y114.919 E30.62299
G1 X163.145 Y115.448 E30.64826
G1 X162.719 Y115.914 E30.67346
G1 X162.225 Y116.307 E30.69865
G1 X161.674 Y116.618 E30.7239
G1 X161.084 Y116.836 E30.74901
G1 X160.488 Y116.96 E30.77331
G1 X160.039 Y116.997 E30.79129
G1 X157.645 Y117 E30.88684
G1 X156.906 Y116.987 E30.91634
G1 X156.309 Y116.926 E30.94029
G1 X155.544 Y116.733 E30.97178
G1 X154.604 Y116.261 E31.01376
G1 X152.179 Y115.083 E31.12136
G1 X149.676 Y113.952 E31.23099
G1 X147.128 Y112.888 E31.34119
G1 X144.621 Y111.923 E31.44841
G1 X142.1 Y111.035 E31.55509
G1 X139.471 Y110.191 E31.66529
G1 X136.876 Y109.436 E31.77316
G1 X134.255 Y108.756 E31.88123
G1 X131.614 Y108.148 E31.9894
G1 X128.932 Y107.611 E32.09857
G1 X126.281 Y107.157 E32.20591
G1 X123.594 Y106.775 E32.31424
G1 X120.896 Y106.47 E32.4226
G1 X118.157 Y106.236 E32.53232
G1 X115.488 Y106.087 E32.63901
G1 X111.384 Y106 E32.80285
G1 X88.639 Y106 E33.71065
G1 X85.864 Y106.04 E33.82142
G1 X83.147 Y106.155 E33.92996
G1 X80.428 Y106.348 E34.03875
G1 X77.764 Y106.612 E34.1456
G1 X75.04 Y106.96 E34.2552
G1 X72.362 Y107.381 E34.3634
G1 X69.716 Y107.873 E34.47082
G1 X67.069 Y108.44 E34.57886
G1 X64.389 Y109.1 E34.68902
G1 X61.798 Y109.811 E34.79626
G1 X59.195 Y110.609 E34.90492
G1 X56.6 Y111.484 E35.01422
G1 X54.105 Y112.404 E35.12036
G1 X51.551 Y113.43 E35.23021
G1 X49.057 Y114.515 E35.33877
G1 X46.593 Y115.671 E35.44739
G1 X45.605 Y116.169 E35.49155
G1 X44.724 Y116.598 E35.53066
G1 X44.102 Y116.833 E35.5572
G1 X43.506 Y116.958 E35.58151
G1 X43.047 Y116.997 E35.59989
G1 X40.656 Y117 E35.69532
G1 X39.924 Y116.989 E35.72454
G1 X39.262 Y116.919 E35.75111
G1 X38.653 Y116.752 E35.77631
G1 X38.078 Y116.491 E35.80152
G1 X37.551 Y116.144 E35.8267
G1 X37.085 Y115.717 E35.85193
G1 X36.692 Y115.222 E35.87715
G1 X36.382 Y114.673 E35.90232
G1 X36.163 Y114.081 E35.92751
G1 X36.04 Y113.486 E35.95176
G1 X36.003 Y113.033 E35.9699
G1 X36 Y97.614 E36.58531
G1 X36.012 Y96.913 E36.61329
G1 X36.084 Y96.254 E36.63975
G1 X36.23 Y95.704 E36.66246
G1 X36.452 Y95.183 E36.68506
G1 X36.863 Y94.542 E36.71545
G1 X37.289 Y94.08 E36.74054
G1 X37.786 Y93.685 E36.76587
G1 X38.335 Y93.378 E36.79098
G0 F3600 X38.478 Y93.752
G1 F1800 X39 Y93.552 E36.81329
G1 X39.771 Y93.327 E36.84535
G1 X41.065 Y92.97 E36.89892
G1 X43.679 Y92.165 E37.00809
G1 X46.262 Y91.29 E37.11693
G1 X48.828 Y90.339 E37.22616
G1 X51.332 Y89.329 E37.33392
G1 X53.845 Y88.232 E37.44336
G1 X56.306 Y87.075 E37.5519
G1 X58.754 Y85.837 E37.66139
G1 X61.183 Y84.52 E37.77167
G1 X62.381 Y83.852 E37.82641
G1 X62.841 Y83.641 E37.84661
G1 X63.387 Y83.484 E37.86929
G1 X64.108 Y83.41 E37.89821
G1 X64.996 Y83.414 E37.93366
G1 X66.49 Y83.626 E37.99388
G1 X66.624 Y83.634 E37.99924
G1 X67.818 Y83.806 E38.04739
G1 X70.517 Y84.115 E38.15581
G1 X73.231 Y84.35 E38.26454
G1 X75.957 Y84.506 E38.37352
G1 X78.717 Y84.586 E38.48372
G1 X80.183 Y84.598 E38.54224
G1 X119.855 Y84.597 E40.12563
G1 X122.64 Y84.557 E40.2368
G1 X125.357 Y84.442 E40.34534
G1 X128.082 Y84.249 E40.45437
G1 X130.778 Y83.981 E40.5625
G1 X133.509 Y83.632 E40.67239
G1 X134.979 Y83.415 E40.7317
G1 X135.917 Y83.411 E40.76913
G1 X136.483 Y83.46 E40.79181
G1 X137.04 Y83.6 E40.81473
G1 X137.634 Y83.86 E40.84061
G1 X140.643 Y85.524 E40.97785
G1 X143.102 Y86.789 E41.08822
G1 X145.547 Y87.959 E41.1964
G1 X148.041 Y89.069 E41.30535
G1 X150.561 Y90.103 E41.41407
G1 X153.119 Y91.072 E41.52324
G1 X155.673 Y91.955 E41.6311
G1 X158.266 Y92.772 E41.73961
G1 X161.008 Y93.555 E41.85342
G1 X161.538 Y93.759 E41.87609
G1 X162.031 Y94.043 E41.8988
G1 X162.472 Y94.401 E41.92147
G1 X162.853 Y94.825 E41.94422
G1 X163.16 Y95.302 E41.96686
G1 X163.368 Y95.763 E41.98704
G1 X163.534 Y96.373 E42.01228
G1 X163.597 Y96.96 E42.03584
G1 X163.6 Y112.309 E42.64845
G1 X163.591 Y113.036 E42.67747
G1 X163.533 Y113.633 E42.70141
G1 X163.387 Y114.183 E42.72412
G1 X163.157 Y114.702 E42.74678
G1 X162.848 Y115.18 E42.7695
G1 X162.467 Y115.603 E42.79222
G1 X162.026 Y115.96 E42.81486
G1 X161.532 Y116.244 E42.83761
G1 X161.001 Y116.445 E42.86027
G1 X160.455 Y116.561 E42.88254
G1 X160.006 Y116.598 E42.90053
G1 X157.651 Y116.6 E42.99452
G1 X156.947 Y116.589 E43.02262
G1 X156.35 Y116.528 E43.04657
G1 X155.685 Y116.356 E43.07399
G1 X154.779 Y115.901 E43.11445
G1 X152.344 Y114.718 E43.2225
G1 X149.841 Y113.588 E43.33211
G1 X147.282 Y112.519 E43.4428
G1 X144.765 Y111.55 E43.55044
G1 X142.222 Y110.654 E43.65806
G1 X139.593 Y109.81 E43.76826
G1 X136.983 Y109.051 E43.87675
G1 X134.345 Y108.366 E43.98553
G1 X131.704 Y107.758 E44.09369
G1 X129 Y107.217 E44.20375
G1 X126.337 Y106.761 E44.31159
G1 X123.65 Y106.379 E44.41991
G1 X120.93 Y106.071 E44.52916
G1 X118.191 Y105.838 E44.63888
G1 X115.496 Y105.687 E44.74661
G1 X111.392 Y105.6 E44.91045
G1 X88.633 Y105.6 E45.81881
G1 X85.847 Y105.64 E45.93001
G1 X83.13 Y105.755 E46.03855
G1 X80.397 Y105.949 E46.14791
G1 X77.713 Y106.215 E46.25556
G1 X74.989 Y106.563 E46.36516
G1 X72.3 Y106.986 E46.4738
G1 X69.632 Y107.482 E46.58211
G1 X66.985 Y108.049 E46.69016
G1 X64.283 Y108.714 E46.80122
G1 X61.692 Y109.426 E46.90846
G1 X59.067 Y110.23 E47.01804
G1 X56.472 Y111.105 E47.12734
G1 X53.956 Y112.033 E47.23437
G1 X51.391 Y113.063 E47.34469
G1 X48.897 Y114.148 E47.45324
G1 X46.423 Y115.309 E47.56232
G1 X45.43 Y115.809 E47.60669
G1 X44.549 Y116.238 E47.6458
G1 X44.018 Y116.442 E47.66851
G1 X43.472 Y116.559 E47.69079
G1 X43.013 Y116.598 E47.70918
G1 X40.661 Y116.6 E47.80305
G1 X39.963 Y116.591 E47.83091
G1 X39.365 Y116.532 E47.8549
G1 X38.815 Y116.386 E47.87761
G1 X38.295 Y116.155 E47.90032
G1 X37.819 Y115.847 E47.92295
G1 X37.396 Y115.466 E47.94567
G1 X37.039 Y115.023 E47.96838
G1 X36.756 Y114.531 E47.99103
G1 X36.554 Y113.999 E48.01374
G1 X36.439 Y113.453 E48.03601
G1 X36.402 Y113 E48.05415
G1 X36.4 Y97.62 E48.668
G1 X36.41 Y96.954 E48.69459
G1 X36.471 Y96.357 E48.71854
G1 X36.617 Y95.807 E48.74125
G1 X36.819 Y95.343 E48.76145
G1 X37.159 Y94.811 E48.78665
G1 X37.54 Y94.391 E48.80928
G1 X37.984 Y94.033 E48.83204
G1 X38.478 Y93.752 E48.85473
G0 F3600 X38.622 Y94.125
